src/images/Roff/Process1.svg

<svg fill="none" height="200" viewBox="0 0 200 200" width="200" xmlns="http://www.w3.org/2000/svg"><rect fill="#b9d053" height="200" rx="20" width="200"/><g fill="#fbfbfb"><path d="m46.9336 88.2077h64.8584v11.7923h-64.8584zm0-11.7924h64.8584v-11.7925h-64.8584zm0 47.1697h41.2736v-11.792h-41.2736zm88.5024-18.455 4.186-4.186c.546-.547 1.194-.9807 1.907-1.2766s1.478-.4482 2.25-.4482 1.537.1523 2.25.4482c.714.2959 1.361.7296 1.907 1.2766l4.186 4.186c2.3 2.299 2.3 6.014 0 8.314l-4.186 4.186zm-4.186 4.186-31.2504 31.25v12.5h12.5004l31.25-31.25z"/><rect height="12.2642" rx="3" width="69.8113" x="44.3394" y="64.1511"/><rect height="12.2642" rx="3" width="69.8113" x="44.3394" y="87.7358"/><rect height="12.2642" rx="3" width="46.2264" x="44.3394" y="111.321"/></g></svg>

<svg width="200" height="200" viewBox="0 0 200 200" fill="none" xmlns="http://www.w3.org/2000/svg">
<rect width="200" height="200" rx="20" fill="#B9D053"/>
<path d="M46.9336 88.2077H111.792V100H46.9336V88.2077ZM46.9336 76.4153H111.792V64.6228H46.9336V76.4153ZM46.9336 123.585H88.2072V111.793H46.9336V123.585ZM135.436 105.13L139.622 100.944C140.168 100.397 140.816 99.9633 141.529 99.6674C142.242 99.3715 143.007 99.2192 143.779 99.2192C144.551 99.2192 145.316 99.3715 146.029 99.6674C146.743 99.9633 147.39 100.397 147.936 100.944L152.122 105.13C154.422 107.429 154.422 111.144 152.122 113.444L147.936 117.63L135.436 105.13ZM131.25 109.316L99.9996 140.566V153.066H112.5L143.75 121.816L131.25 109.316Z" fill="#FBFBFB"/>
<rect x="44.3394" y="64.1511" width="69.8113" height="12.2642" rx="3" fill="#FBFBFB"/>
<rect x="44.3394" y="87.7358" width="69.8113" height="12.2642" rx="3" fill="#FBFBFB"/>
<rect x="44.3394" y="111.321" width="46.2264" height="12.2642" rx="3" fill="#FBFBFB"/>
</svg>
